pheimlicher_fiverr_final/xmp_files/test example 2.xmp
<x:xmpmeta xmlns:x="adobe:ns:meta/" x:xmptk="Adobe XMP Core 5.6-c140 79.160451, 2017/05/06-01:08:21        ">
 <rdf:RDF xmlns:rdf="http://www.w3.org/1999/02/22-rdf-syntax-ns#">
  <rdf:Description rdf:about=""
    xmlns:crs="http://ns.adobe.com/camera-raw-settings/1.0/"
   crs:Version="13.3"
   crs:ProcessVersion="11.0"
   crs:WhiteBalance="Custom"
   crs:IncrementalTemperature="+14"
   crs:IncrementalTint="+6"
   crs:Exposure2012="0.00"
   crs:Contrast2012="+10"
   crs:Highlights2012="-57"
   crs:Shadows2012="+41"
   crs:Whites2012="-18"
   crs:Blacks2012="+80"
   crs:Texture="0"
   crs:Clarity2012="+14"
   crs:Dehaze="0"
   crs:Vibrance="-10"
   crs:Saturation="-14"
   crs:ParametricShadows="+19"
   crs:ParametricDarks="+7"
   crs:ParametricLights="-59"
   crs:ParametricHighlights="+15"
   crs:ParametricShadowSplit="25"
   crs:ParametricMidtoneSplit="50"
   crs:ParametricHighlightSplit="75"
   crs:Sharpness="36"
   crs:SharpenRadius="+1.0"
   crs:SharpenDetail="25"
   crs:SharpenEdgeMasking="0"
   crs:LuminanceSmoothing="0"
   crs:ColorNoiseReduction="25"
   crs:ColorNoiseReductionDetail="50"
   crs:ColorNoiseReductionSmoothness="50"
   crs:HueAdjustmentRed="0"
   crs:HueAdjustmentOrange="-4"
   crs:HueAdjustmentYellow="-38"
   crs:HueAdjustmentGreen="+100"
   crs:HueAdjustmentAqua="+17"
   crs:HueAdjustmentBlue="-31"
   crs:HueAdjustmentPurple="-72"
   crs:HueAdjustmentMagenta="0"
   crs:SaturationAdjustmentRed="-11"
   crs:SaturationAdjustmentOrange="-37"
   crs:SaturationAdjustmentYellow="-66"
   crs:SaturationAdjustmentGreen="-26"
   crs:SaturationAdjustmentAqua="-4"
   crs:SaturationAdjustmentBlue="+50"
   crs:SaturationAdjustmentPurple="0"
   crs:SaturationAdjustmentMagenta="0"
   crs:LuminanceAdjustmentRed="0"
   crs:LuminanceAdjustmentOrange="-20"
   crs:LuminanceAdjustmentYellow="+23"
   crs:LuminanceAdjustmentGreen="-9"
   crs:LuminanceAdjustmentAqua="0"
   crs:LuminanceAdjustmentBlue="+80"
   crs:LuminanceAdjustmentPurple="+27"
   crs:LuminanceAdjustmentMagenta="0"
   crs:SplitToningShadowHue="0"
   crs:SplitToningShadowSaturation="17"
   crs:SplitToningHighlightHue="21"
   crs:SplitToningHighlightSaturation="8"
   crs:SplitToningBalance="+82"
   crs:ColorGradeMidtoneHue="0"
   crs:ColorGradeMidtoneSat="0"
   crs:ColorGradeShadowLum="0"
   crs:ColorGradeMidtoneLum="0"
   crs:ColorGradeHighlightLum="0"
   crs:ColorGradeBlending="100"
   crs:ColorGradeGlobalHue="0"
   crs:ColorGradeGlobalSat="0"
   crs:ColorGradeGlobalLum="0"
   crs:AutoLateralCA="0"
   crs:LensProfileEnable="0"
   crs:LensManualDistortionAmount="0"
   crs:VignetteAmount="0"
   crs:DefringePurpleAmount="0"
   crs:DefringePurpleHueLo="30"
   crs:DefringePurpleHueHi="70"
   crs:DefringeGreenAmount="0"
   crs:DefringeGreenHueLo="40"
   crs:DefringeGreenHueHi="60"
   crs:PerspectiveUpright="0"
   crs:PerspectiveVertical="0"
   crs:PerspectiveHorizontal="0"
   crs:PerspectiveRotate="0.0"
   crs:PerspectiveAspect="0"
   crs:PerspectiveScale="100"
   crs:PerspectiveX="0.00"
   crs:PerspectiveY="0.00"
   crs:GrainAmount="6"
   crs:GrainSize="70"
   crs:GrainFrequency="50"
   crs:PostCropVignetteAmount="0"
   crs:ShadowTint="+32"
   crs:RedHue="+18"
   crs:RedSaturation="-14"
   crs:GreenHue="+23"
   crs:GreenSaturation="+25"
   crs:BlueHue="-5"
   crs:BlueSaturation="-10"
   crs:ConvertToGrayscale="False"
   crs:OverrideLookVignette="False"
   crs:ToneCurveName2012="Custom"
   crs:CameraProfile="Default Color"
   crs:GrainSeed="3978888820"
   crs:HasSettings="True"
   crs:HasCrop="False">
   <crs:ToneCurvePV2012>
    <rdf:Seq>
     <rdf:li>0, 0</rdf:li>
     <rdf:li>70, 60</rdf:li>
     <rdf:li>186, 181</rdf:li>
     <rdf:li>255, 255</rdf:li>
    </rdf:Seq>
   </crs:ToneCurvePV2012>
   <crs:ToneCurvePV2012Red>
    <rdf:Seq>
     <rdf:li>0, 0</rdf:li>
     <rdf:li>40, 12</rdf:li>
     <rdf:li>84, 58</rdf:li>
     <rdf:li>124, 123</rdf:li>
     <rdf:li>186, 196</rdf:li>
     <rdf:li>255, 255</rdf:li>
    </rdf:Seq>
   </crs:ToneCurvePV2012Red>
   <crs:ToneCurvePV2012Green>
    <rdf:Seq>
     <rdf:li>0, 0</rdf:li>
     <rdf:li>40, 14</rdf:li>
     <rdf:li>83, 59</rdf:li>
     <rdf:li>124, 126</rdf:li>
     <rdf:li>172, 185</rdf:li>
     <rdf:li>255, 255</rdf:li>
    </rdf:Seq>
   </crs:ToneCurvePV2012Green>
   <crs:ToneCurvePV2012Blue>
    <rdf:Seq>
     <rdf:li>0, 0</rdf:li>
     <rdf:li>39, 13</rdf:li>
     <rdf:li>87, 65</rdf:li>
     <rdf:li>123, 124</rdf:li>
     <rdf:li>183, 197</rdf:li>
     <rdf:li>255, 255</rdf:li>
    </rdf:Seq>
   </crs:ToneCurvePV2012Blue>
  </rdf:Description>
 </rdf:RDF>
</x:xmpmeta>
